X: 2371
T: Baitheadh Bhrioclais
R: jig
M: 6/8
K: Gmajor
g|:fed efg|dge dBG|ABA- A2D|ABA A2g|
fed efg|dge dBG|AGA B2A|1 G3 G2 g:|2 G3 GAB||
|:cBc e2c|BAB d2B|ABA- A2 D|ABA- A2 B|
cBc e2c|BAB d2B|AGA B2A|1 G3 GAB:|2 G3- G2 g||

